src/assets/duotone/CpuCharge.svg

<svg width="24" height="24" viewBox="0 0 24 24"  xmlns="http://www.w3.org/2000/svg">
<path opacity="0.4" d="M15 4H9C6.24 4 4 6.24 4 9V15C4 17.76 6.24 20 9 20H15C17.76 20 20 17.76 20 15V9C20 6.24 17.76 4 15 4ZM17.26 14.26C17.26 15.92 15.92 17.26 14.26 17.26H9.74C8.08 17.26 6.74 15.92 6.74 14.26V9.74C6.74 8.08 8.08 6.74 9.74 6.74H14.25C15.91 6.74 17.25 8.08 17.25 9.74V14.26H17.26Z" />
<path d="M9.06006 2.75V4H9.00006C8.50006 4 8.02006 4.07 7.56006 4.21V2.75C7.56006 2.34 7.89006 2 8.31006 2C8.72006 2 9.06006 2.34 9.06006 2.75Z" />
<path d="M12.75 2.75V4H11.25V2.75C11.25 2.34 11.59 2 12 2C12.41 2 12.75 2.34 12.75 2.75Z" />
<path d="M16.4502 2.75V4.21C15.9902 4.07 15.5002 4 15.0002 4H14.9502V2.75C14.9502 2.34 15.2902 2 15.7002 2C16.1102 2 16.4502 2.34 16.4502 2.75Z" />
<path d="M22 8.2998C22 8.7198 21.67 9.0498 21.25 9.0498H20V8.9998C20 8.4998 19.93 8.0098 19.79 7.5498H21.25C21.67 7.5498 22 7.8898 22 8.2998Z" />
<path d="M22 12C22 12.41 21.67 12.75 21.25 12.75H20V11.25H21.25C21.67 11.25 22 11.58 22 12Z" />
<path d="M22 15.7002C22 16.1102 21.67 16.4502 21.25 16.4502H19.79C19.93 15.9902 20 15.5002 20 15.0002V14.9502H21.25C21.67 14.9502 22 15.2802 22 15.7002Z" />
<path d="M16.4502 19.79V21.25C16.4502 21.66 16.1102 22 15.7002 22C15.2902 22 14.9502 21.66 14.9502 21.25V20H15.0002C15.5002 20 15.9902 19.93 16.4502 19.79Z" />
<path d="M12.7598 20V21.25C12.7598 21.66 12.4198 22 12.0098 22C11.5898 22 11.2598 21.66 11.2598 21.25V20H12.7598Z" />
<path d="M9.06006 20V21.25C9.06006 21.66 8.72006 22 8.31006 22C7.89006 22 7.56006 21.66 7.56006 21.25V19.79C8.02006 19.93 8.50006 20 9.00006 20H9.06006Z" />
<path d="M4.21 7.5498C4.07 8.0098 4 8.4998 4 8.9998V9.0498H2.75C2.34 9.0498 2 8.7198 2 8.2998C2 7.8898 2.34 7.5498 2.75 7.5498H4.21Z" />
<path d="M4 11.25V12.75H2.75C2.34 12.75 2 12.41 2 12C2 11.58 2.34 11.25 2.75 11.25H4Z" />
<path d="M4.21 16.4502H2.75C2.34 16.4502 2 16.1102 2 15.7002C2 15.2802 2.34 14.9502 2.75 14.9502H4V15.0002C4 15.5002 4.07 15.9902 4.21 16.4502Z" />
<path d="M14.2602 6.74023H9.74023C8.08023 6.74023 6.74023 8.08023 6.74023 9.74023V14.2502C6.74023 15.9102 8.08023 17.2502 9.74023 17.2502H14.2502C15.9102 17.2502 17.2502 15.9102 17.2502 14.2502V9.74023C17.2602 8.09023 15.9102 6.74023 14.2602 6.74023ZM13.5902 13.0402L12.6502 14.6802C12.5102 14.9202 12.2602 15.0602 12.0002 15.0602C11.8702 15.0602 11.7402 15.0302 11.6302 14.9602C11.2702 14.7502 11.1502 14.2902 11.3502 13.9402L12.0302 12.7602H11.4402C10.9602 12.7602 10.5702 12.5502 10.3602 12.1902C10.1502 11.8302 10.1702 11.3802 10.4002 10.9702L11.3402 9.33023C11.5502 8.97023 12.0102 8.85023 12.3602 9.05023C12.7202 9.26023 12.8402 9.72023 12.6402 10.0702L11.9602 11.2502H12.5502C13.0302 11.2502 13.4202 11.4602 13.6302 11.8202C13.8502 12.1802 13.8302 12.6202 13.5902 13.0402Z" />
</svg>

<?xml version="1.0" encoding="UTF-8"?>
<svg width="24" height="24" viewBox="0 0 24 24" xmlns="http://www.w3.org/2000/svg">
 <path d="m15 4h-6c-2.76 0-5 2.24-5 5v6c0 2.76 2.24 5 5 5h6c2.76 0 5-2.24 5-5v-6c0-2.76-2.24-5-5-5zm2.26 10.26c0 1.66-1.34 3-3 3h-4.52c-1.66 0-3-1.34-3-3v-4.52c0-1.66 1.34-3 3-3h4.51c1.66 0 3 1.34 3 3v4.52h0.01z" opacity=".4"/>
 <path d="m9.0601 2.75v1.25h-0.06c-0.5 0-0.98 0.07-1.44 0.21v-1.46c0-0.41 0.33-0.75 0.75-0.75 0.41 0 0.75 0.34 0.75 0.75z"/>
 <path d="m12.75 2.75v1.25h-1.5v-1.25c0-0.41 0.34-0.75 0.75-0.75s0.75 0.34 0.75 0.75z"/>
 <path d="m16.45 2.75v1.46c-0.46-0.14-0.95-0.21-1.45-0.21h-0.05v-1.25c0-0.41 0.34-0.75 0.75-0.75s0.75 0.34 0.75 0.75z"/>
 <path d="m22 8.2998c0 0.42-0.33 0.75-0.75 0.75h-1.25v-0.05c0-0.5-0.07-0.99-0.21-1.45h1.46c0.42 0 0.75 0.34 0.75 0.75z"/>
 <path d="m22 12c0 0.41-0.33 0.75-0.75 0.75h-1.25v-1.5h1.25c0.42 0 0.75 0.33 0.75 0.75z"/>
 <path d="m22 15.7c0 0.41-0.33 0.75-0.75 0.75h-1.46c0.14-0.46 0.21-0.95 0.21-1.45v-0.05h1.25c0.42 0 0.75 0.33 0.75 0.75z"/>
 <path d="m16.45 19.79v1.46c0 0.41-0.34 0.75-0.75 0.75s-0.75-0.34-0.75-0.75v-1.25h0.05c0.5 0 0.99-0.07 1.45-0.21z"/>
 <path d="m12.76 20v1.25c0 0.41-0.34 0.75-0.75 0.75-0.42 0-0.75-0.34-0.75-0.75v-1.25h1.5z"/>
 <path d="m9.0601 20v1.25c0 0.41-0.34 0.75-0.75 0.75-0.42 0-0.75-0.34-0.75-0.75v-1.46c0.46 0.14 0.94 0.21 1.44 0.21h0.06z"/>
 <path d="m4.21 7.5498c-0.14 0.46-0.21 0.95-0.21 1.45v0.05h-1.25c-0.41 0-0.75-0.33-0.75-0.75 0-0.41 0.34-0.75 0.75-0.75h1.46z"/>
 <path d="M4 11.25V12.75H2.75C2.34 12.75 2 12.41 2 12C2 11.58 2.34 11.25 2.75 11.25H4Z"/>
 <path d="m4.21 16.45h-1.46c-0.41 0-0.75-0.34-0.75-0.75 0-0.42 0.34-0.75 0.75-0.75h1.25v0.05c0 0.5 0.07 0.99 0.21 1.45z"/>
 <path d="m14.26 6.7402h-4.52c-1.66 0-3 1.34-3 3v4.51c0 1.66 1.34 3 3 3h4.51c1.66 0 3-1.34 3-3v-4.51c0.01-1.65-1.34-3-2.99-3zm-0.67 6.3-0.94 1.64c-0.14 0.24-0.39 0.38-0.65 0.38-0.13 0-0.26-0.03-0.37-0.1-0.36-0.21-0.48-0.67-0.28-1.02l0.68-1.18h-0.59c-0.48 0-0.87-0.21-1.08-0.57s-0.19-0.81 0.04-1.22l0.94-1.64c0.21-0.36 0.67-0.48 1.02-0.28 0.36 0.21 0.48 0.67 0.28 1.02l-0.68 1.18h0.59c0.48 0 0.87 0.21 1.08 0.57 0.22 0.36 0.2 0.8-0.04 1.22z"/>
</svg>
